!!!!SEGMENT: 
!!!COM: Beethoven
!!!OTL: Acht Variationen uber "Une fievre brulante" aus "Richard Coeur de Lion" von A.E.M. Gretry
!!!Variation: Variation 8 g
**function	**harm	**kern	**kern
*M2/4	*M2/4	*staff2	*staff1
*C:	*C:	*clefF4	*clefG2
*tb16	*	*k[]	*k[]
*	*	*M2/4	*M2/4
*	*	*C:	*C:
=	=	=	=
2T	2I	16CLL	16eLL
.	.	16E	16g
.	.	16G	16cc
.	.	16cJJ	16eeJJ
.	.	16CLL	16cLL
.	.	16E	16e
.	.	16G	16g
.	.	16cJJ	16ccJJ
=	=	=350	=350
4T	4IV64	16CLL	16fLL
.	.	16F	16a
.	.	16A	16cc
.	.	16cJJ	16ffJJ
4T	4I	16CLL	16eLL
.	.	16E	16g
.	.	16G	16cc
.	.	16cJJ	16eeJJ
=	=	=351	=351
4T	4I	16CLL	16eLL
.	.	16E	16g
.	.	16G	16cc
.	.	16cJJ	16eeJJ
4T	4V7	16CLL	16dLL
.	.	16F	16f
.	.	16G	16g
.	.	16BJJ	16ddJJ
=	=	=352	=352
2T	2I	16CLL	16cLL
.	.	16E	16e
.	.	16G	16g
.	.	16cJJ	16ccJJ
.	.	16CLL	16cLL
.	.	16E	16e
.	.	16G	16g
.	.	16cJJ	16ccJJ
=	=	=353	=353
4T	4V6	16BBLL	16dLL
.	.	16D	16g
.	.	16G	16b
.	.	16BJJ	16ddJJ
4T	4I	16CLL	16eLL
.	.	16E	16g
.	.	16G	16cc
.	.	16cJJ	16eeJJ
=	=	=354	=354
4P	4IV6	16AALL	16fLL
.	.	16C	16a
.	.	16F	16cc
.	.	16AJJ	16ffJJ
4P	4ii6	16FFLL	16fLL
.	.	16C	16a
.	.	16D	16dd
.	.	16FJJ	16ffJJ
=	=	=355	=355
4D	4I64	16GGLL	16dLL
.	.	16C	16g
.	.	16D	16cc
.	.	16GJJ	16ddJJ
4D	4V	16GGLL	16dLL
.	.	16BB	16g
.	.	16D	16b
.	.	16GJJ	16ddJJ
=	=	=356	=356
2T	2I	16CLL	16eLL
.	.	16E	16g
.	.	16G	16cc
.	.	16cJJ	16eeJJ
.	.	16CLL	16cLL
.	.	16E	16e
.	.	16G	16g
.	.	16cJJ	16ccJJ
=	=	=357	=357
4T	4V6	16BBLL	16dLL
.	.	16D	16g
.	.	16G	16b
.	.	16BJJ	16ddJJ
4T	4I	16CLL	16eLL
.	.	16E	16g
.	.	16G	16cc
.	.	16cJJ	16eeJJ
=	=	=358	=358
4P	4IV6	16AALL	16fLL
.	.	16C	16a
.	.	16F	16cc
.	.	16AJJ	16ffJJ
4P	4ii6	16FFLL	16fLL
.	.	16C	16a
.	.	16D	16dd
.	.	16FJJ	16ffJJ
=	=	=359	=359
4D	4I64	16GGLL	16dLL
.	.	16C	16g
.	.	16D	16cc
.	.	16GJJ	16ddJJ
4D	4V	16GGLL	16dLL
.	.	16BB	16g
.	.	16D	16b
.	.	16GJJ	16ddJJ
=	=	=360	=360
2T	2I	16CCLL	8cc'L
.	.	16EE	.
.	.	16GG	(16eL
.	.	16CJJ	16gJJ
.	.	16CCLL	16ccLL
.	.	16EE	16ee
.	.	16GG	16dd
.	.	16CJJ	16ccJJ)
=	=	=361	=361
2T	2V7	16CCLL	8r
.	.	16DD	.
.	.	16FF	(16bLL
.	.	16BBJJ	16ddJJ
.	.	16CCLL	16ffLL
.	.	16DD	16aa
.	.	16FF	16gg
.	.	16BBJJ	16ffJJ)
=	=	=362	=362
2T	2I	16CCLL	8r
.	.	16EE	.
.	.	16GG	(16eeLL
.	.	16CJJ	16ggJJ
.	.	16CCLL	16cccLL
.	.	16EE	16eee
.	.	16GG	16ddd
.	.	16CJJ	16cccJJ
=	=	=363	=363
2T	2V7	16CCLL	16bbLL
.	.	16FF	16aa
.	.	16GG	16gg
.	.	16DJJ	16ffJJ
.	.	16CCLL	16eeLL
.	.	16FF	16dd
.	.	16GG	16cc
.	.	16DJJ	16bJJ)
=	=	=364	=364
2T	2I	16CCLL	8cc'L
.	.	16EE	.
.	.	16GG	(16eL
.	.	16CJJ	16gJJ
.	.	16CCLL	16ccLL
.	.	16EE	16ee
.	.	16GG	16dd
.	.	16CJJ	16ccJJ)
=	=	=365	=365
2T	2V7	16CCLL	8r
.	.	16DD	.
.	.	16FF	(16bLL
.	.	16BBJJ	16ddJJ
.	.	16CCLL	16ffLL
.	.	16DD	16aa
.	.	16FF	16gg
.	.	16BBJJ	16ffJJ)
=	=	=366	=366
2T	2I	16CCLL	8r
.	.	16EE	.
.	.	16GG	(16eeLL
.	.	16CJJ	16ggJJ
.	.	16CCLL	16cccLL
.	.	16EE	16eee
.	.	16GG	16ddd
.	.	16CJJ	16cccJJ
=	=	=367	=367
2T	2V7	16CCLL	16bbLL
.	.	16FF	16aa
.	.	16GG	16gg
.	.	16DJJ	16ffJJ
.	.	16CCLL	16eeLL
.	.	16FF	16dd
.	.	16GG	16cc
.	.	16DJJ	16bJJ)
=	=	=368	=368
2T	2I	16CCLL	8cc'L
.	.	16EE	.
.	.	16GG	(16eL
.	.	16CJJ	16gJJ
.	.	16CCLL	16ccLL
.	.	16EE	16ee
.	.	16GG	16dd
.	.	16CJJ	16ccJJ
=	=	=369	=369
2T	2V7	16CCLL	16bLL
.	.	16FF	16a
.	.	16GG	16g
.	.	16DJJ	16fJJ
.	.	16CCLL	16eLL
.	.	16FF	16d
.	.	16GG	16c
.	.	16DJJ	16BJJ)
=	=	=370	=370
2T	2I	4CC 4EE 4GG 4C	16cLL
.	.	.	16G
.	.	.	16E
.	.	.	16GJJ
.	.	4r	16cLL
.	.	.	16e
.	.	.	16g
.	.	.	16eJJ
=	=	=371	=371
2T	2I	4CC 4EE 4GG 4C	16cLL
.	.	.	16G
.	.	.	16E
.	.	.	16GJJ
.	.	4r	16cLL
.	.	.	16e
.	.	.	16g
.	.	.	16eJJ
=	=	=372	=372
2T	2I	4CC 4EE 4GG 4C	4c
.	.	4r	4r
=	=	==	==
*-	*- 	*-	*-
